assets/illustrations/spots/letter-invite-blip.svg

<svg width="522" height="500" viewBox="0 0 522 500" fill="none" xmlns="http://www.w3.org/2000/svg"><path d="M468.021 155.136c-26.234-22.048-62.043-34.02-97.827-41.891a738.256 738.256 0 0 0-19.773-4.012c-23.23-4.368-44.65-13.963-62.017-27.78l-.338-.243c-18.709-14.97-34.719-32.697-56.308-44.801-15.318-8.466-32.839-13.623-51.037-15.022-18.199-1.398-36.524 1.003-53.381 6.996-33.422 12.435-58.281 40.568-61.81 71.413-4.256 36.952 20.058 73.838 11.65 110.239C66.802 255.012 6.627 295.602 6.004 341.44c-.285 22.599 17.308 55.406 39.183 68.348s49.796 17.241 76.16 14.353c40.22-4.41 75.251-44.096 111.839-59.066 39.304-16.132 81.325-26.962 124.554-32.102 29.27-3.461 59.682-4.409 86.331-15.433 33.734-13.934 57.217-43.765 61.265-75.47 4.048-31.704-10.639-64.556-37.314-86.934Z" fill="#B9CBD3" style="mix-blend-mode:luminosity" opacity=".16"/><g opacity=".1" filter="url(#letter/invite-blip__a)"><ellipse cx="261.008" cy="452.881" rx="244.992" ry="26.783" fill="#0A0F1A"/></g><g filter="url(#letter/invite-blip__b)"><path fill-rule="evenodd" clip-rule="evenodd" d="M391.003 42.937c3.382 0 6.124 2.841 6.125 6.345l-.001 147.99v72.087l-24.505 18.02v.001l-81.846 60.163-.001-.001-.001.001-34.532-25.383-34.437 25.383h-.121l-81.845-60.162-24.506-18.022V49.282c0-3.504 2.743-6.345 6.127-6.345h269.543Z" fill="#fff"/></g><path d="M302.067 258.966h-92.379c-2.847 0-5.133 2.525-5.133 5.669 0 3.121 2.286 5.667 5.133 5.667h92.38c2.847 0 5.133-2.546 5.133-5.667-.001-3.143-2.287-5.669-5.134-5.669Zm-20.509 22.671h-51.334c-2.847 0-5.133 2.524-5.133 5.667 0 3.122 2.286 5.668 5.133 5.668h51.334c2.828 0 5.133-2.546 5.133-5.668 0-3.143-2.307-5.667-5.133-5.667Z" fill="#D2DFE6"/><path d="m396.777 264.266-24.506 19.207-81.821 64.122h-69.116l-81.845-64.122-24.506-19.207-49.012-38.417v216.438c0 8.137 3.326 15.35 8.471 20.291h-.023c.023.027.048.027.072.054 3.996 3.805 9.022 6.288 14.622 6.578h333.774c2.824-.131 5.385-.951 7.85-2.034h.12c8.806-4.042 14.932-13.66 14.932-24.889V225.85l-49.012 38.416Z" fill="#FFD27A"/><path fill-rule="evenodd" clip-rule="evenodd" d="M114.985 178.365v-.001s-12.253 7.865-24.506 17.728v.001c-12.253 9.862-24.505 21.72-24.505 29.705l41.608 32.614 7.403 5.803v-.001l.001.001v-85.851l-.001.001Z" fill="#F5BD4D"/><path d="m445.793 225.91-49.012 38.417v-85.851s49.012 31.463 49.012 47.434Z" fill="#F5BD4D"/><path d="m290.426 347.543-29.953-23.219c-1.122-1.406-2.762-2.297-4.593-2.297s-3.469.892-4.592 2.297h-.007l-29.826 23.219h-.119L74.419 462.526c3.925 3.778 9.07 6.21 14.694 6.632h333.774c2.824-.132 5.385-.951 7.85-2.034h.12c2.321-1.216 4.523-2.721 6.485-4.598L290.426 347.543Z" fill="#FFD686"/><path d="M319.575 124.626c-3.832-19.798-17.671-33.638-37.951-37.917a135.073 135.073 0 0 0-27.412-2.708c-12.109 0-29.115 1.598-41.304 9.29-20.439 12.864-22.781 38.376-22.355 52.405.425 14.029 3.779 33.773 17.006 47.693 10.938 11.592 32.335 17.117 48.436 17.523v14.408c-.01.823.141 1.639.444 2.401a6.202 6.202 0 0 0 1.324 2.038 6.073 6.073 0 0 0 1.996 1.356 5.987 5.987 0 0 0 2.358.462h.558a5.858 5.858 0 0 0 3.407-1.463 633.704 633.704 0 0 0 22.622-20.448l3.566-3.331a118.05 118.05 0 0 0 17.378-18.741c10.885-15.763 14.611-39.325 9.927-62.968Z" fill="#2CC3D5"/><path opacity=".5" fill-rule="evenodd" clip-rule="evenodd" d="M262.359 138.551a12.457 12.457 0 0 1-6.967 2.134 12.472 12.472 0 0 1-8.866-3.71 12.729 12.729 0 0 1-3.673-8.956c0-2.505.735-4.954 2.113-7.036a12.56 12.56 0 0 1 5.628-4.665 12.418 12.418 0 0 1 7.245-.721 12.507 12.507 0 0 1 6.42 3.466 12.707 12.707 0 0 1 3.432 6.485 12.784 12.784 0 0 1-.714 7.318 12.639 12.639 0 0 1-4.618 5.685Zm-8.973 5.448h4.013a17.674 17.674 0 0 1 12.551 5.256 18.035 18.035 0 0 1 5.203 12.677v3.525a4.063 4.063 0 0 1-1.173 2.848 3.98 3.98 0 0 1-2.819 1.184h-31.547a3.982 3.982 0 0 1-2.82-1.184 4.062 4.062 0 0 1-1.172-2.848v-3.514c0-4.759 1.872-9.323 5.203-12.688a17.677 17.677 0 0 1 12.561-5.256Z" fill="#fff"/><defs><filter id="letter/invite-blip__a" x=".016" y="410.098" width="521.984" height="85.566" filterUnits="userSpaceOnUse" color-interpolation-filters="sRGB"><feFlood flood-opacity="0" result="BackgroundImageFix"/><feBlend in="SourceGraphic" in2="BackgroundImageFix" result="shape"/><feGaussianBlur stdDeviation="8" result="effect1_foregroundBlur_10272_1642"/></filter><filter id="letter/invite-blip__b" x="103.333" y="32.937" width="305.795" height="328.606" filterUnits="userSpaceOnUse" color-interpolation-filters="sRGB"><feFlood flood-opacity="0" result="BackgroundImageFix"/><feColorMatrix in="SourceAlpha" values="0 0 0 0 0 0 0 0 0 0 0 0 0 0 0 0 0 0 127 0" result="hardAlpha"/><feOffset dy="2"/><feGaussianBlur stdDeviation="6"/><feColorMatrix values="0 0 0 0 0.374547 0 0 0 0 0.481553 0 0 0 0 0.601935 0 0 0 0.15 0"/><feBlend in2="BackgroundImageFix" result="effect1_dropShadow_10272_1642"/><feBlend in="SourceGraphic" in2="effect1_dropShadow_10272_1642" result="shape"/></filter></defs></svg>

<svg width="522" height="500" viewBox="0 0 522 500" fill="none" xmlns="http://www.w3.org/2000/svg">
<path d="M287.153 2.90131C161.591 -15.2697 45.0715 71.7883 26.9005 197.351C8.72947 322.913 95.7876 439.432 221.35 457.604C346.913 475.775 463.432 388.717 481.603 263.154C499.774 137.591 412.716 21.0723 287.153 2.90131Z" fill="#B2DFFD" fill-opacity="0.5"/>
<g opacity="0.1" filter="url(#filter0_f_10272_1642)">
<ellipse cx="261.008" cy="452.881" rx="244.992" ry="26.783" fill="#0A0F1A"/>
</g>
<g filter="url(#filter1_d_10272_1642)">
<path fill-rule="evenodd" clip-rule="evenodd" d="M391.003 42.9367C394.385 42.9367 397.127 45.7781 397.128 49.2819L397.127 197.272V269.359L372.622 287.379V287.38L290.776 347.543L290.775 347.542L290.774 347.543L256.242 322.16L221.805 347.543H221.804L221.804 347.543H221.684L139.839 287.381L115.333 269.359V197.272V49.2827C115.333 45.7781 118.076 42.9367 121.46 42.9367H391.003Z" fill="#F6F6F6"/>
</g>
<path d="M302.067 258.966H209.688C206.841 258.966 204.555 261.491 204.555 264.635C204.555 267.756 206.841 270.302 209.688 270.302H302.068C304.915 270.302 307.201 267.756 307.201 264.635C307.2 261.492 304.914 258.966 302.067 258.966Z" fill="#B2DFFD" fill-opacity="0.5"/>
<path d="M281.558 281.637H230.224C227.377 281.637 225.091 284.161 225.091 287.304C225.091 290.426 227.377 292.972 230.224 292.972H281.558C284.386 292.972 286.691 290.426 286.691 287.304C286.691 284.161 284.384 281.637 281.558 281.637Z" fill="#B2DFFD" fill-opacity="0.5"/>
<path d="M396.777 264.266L372.271 283.473L290.45 347.595H221.453H221.334L139.489 283.473L114.983 264.266L65.9707 225.849V442.287C65.9707 450.424 69.2973 457.637 74.4423 462.578H74.4186C74.4423 462.605 74.4668 462.605 74.4905 462.632C78.4875 466.437 83.5125 468.92 89.1131 469.21H422.887C425.711 469.079 428.272 468.259 430.737 467.176H430.857C439.663 463.134 445.789 453.516 445.789 442.287V225.85L396.777 264.266Z" fill="#0096FA"/>
<path fill-rule="evenodd" clip-rule="evenodd" d="M114.985 178.365V178.364C114.985 178.364 102.732 186.229 90.4793 196.092V196.093C78.2264 205.955 65.9736 217.813 65.9736 225.798L107.582 258.412L114.985 264.215V264.214L114.986 264.215V178.364C114.986 178.364 114.985 178.365 114.985 178.365Z" fill="#0D4FC1"/>
<path d="M445.793 225.91L396.781 264.327V178.476C396.781 178.476 445.793 209.939 445.793 225.91Z" fill="#0D4FC1"/>
<path d="M290.426 347.543L260.473 324.324C259.351 322.918 257.711 322.027 255.88 322.027C254.049 322.027 252.411 322.919 251.288 324.324H251.281L221.455 347.543H221.336L74.4189 462.526C78.3441 466.304 83.4891 468.736 89.1134 469.158H422.887C425.711 469.026 428.272 468.207 430.737 467.124H430.857C433.178 465.908 435.38 464.403 437.342 462.526L290.426 347.543Z" fill="#18A0FB"/>
<path d="M319.575 124.626C315.743 104.828 301.904 90.9883 281.624 86.7092C272.599 84.8743 263.416 83.967 254.212 84.0009C242.103 84.0009 225.097 85.5988 212.908 93.2904C192.469 106.155 190.127 131.667 190.553 145.696C190.978 159.725 194.332 179.469 207.559 193.389C218.497 204.981 239.894 210.506 255.995 210.912V225.32C255.985 226.143 256.136 226.959 256.439 227.721C256.743 228.483 257.193 229.176 257.763 229.759C258.333 230.342 259.012 230.803 259.759 231.115C260.507 231.427 261.308 231.584 262.117 231.577H262.675C263.935 231.473 265.129 230.96 266.082 230.114C272.389 224.697 280.666 217.304 288.704 209.666L292.27 206.335C298.713 200.747 304.54 194.463 309.648 187.594C320.533 171.831 324.259 148.269 319.575 124.626Z" fill="#0096FA"/>
<path fill-rule="evenodd" clip-rule="evenodd" d="M262.359 138.551C260.297 139.942 257.872 140.685 255.392 140.685C252.067 140.685 248.877 139.351 246.526 136.975C244.174 134.6 242.853 131.378 242.853 128.019C242.853 125.514 243.588 123.065 244.966 120.983C246.344 118.9 248.302 117.276 250.594 116.318C252.885 115.359 255.406 115.108 257.839 115.597C260.271 116.086 262.505 117.292 264.259 119.063C266.013 120.835 267.207 123.091 267.691 125.548C268.175 128.005 267.926 130.552 266.977 132.866C266.028 135.181 264.421 137.159 262.359 138.551ZM253.386 143.999H257.399C262.107 144.002 266.621 145.892 269.95 149.255C273.279 152.617 275.15 157.177 275.153 161.932V165.457C275.15 166.526 274.728 167.55 273.98 168.305C273.232 169.061 272.219 169.486 271.161 169.489H239.614C238.556 169.486 237.542 169.061 236.794 168.305C236.046 167.55 235.625 166.526 235.622 165.457V161.943C235.622 157.184 237.494 152.62 240.825 149.255C244.157 145.89 248.675 143.999 253.386 143.999Z" fill="white"/>
<defs>
<filter id="filter0_f_10272_1642" x="0.015625" y="410.098" width="521.984" height="85.5661" filterUnits="userSpaceOnUse" color-interpolation-filters="sRGB">
<feFlood flood-opacity="0" result="BackgroundImageFix"/>
<feBlend mode="normal" in="SourceGraphic" in2="BackgroundImageFix" result="shape"/>
<feGaussianBlur stdDeviation="8" result="effect1_foregroundBlur_10272_1642"/>
</filter>
<filter id="filter1_d_10272_1642" x="103.333" y="32.9367" width="305.795" height="328.606" filterUnits="userSpaceOnUse" color-interpolation-filters="sRGB">
<feFlood flood-opacity="0" result="BackgroundImageFix"/>
<feColorMatrix in="SourceAlpha" type="matrix" values="0 0 0 0 0 0 0 0 0 0 0 0 0 0 0 0 0 0 127 0" result="hardAlpha"/>
<feOffset dy="2"/>
<feGaussianBlur stdDeviation="6"/>
<feColorMatrix type="matrix" values="0 0 0 0 0.374547 0 0 0 0 0.481553 0 0 0 0 0.601935 0 0 0 0.15 0"/>
<feBlend mode="normal" in2="BackgroundImageFix" result="effect1_dropShadow_10272_1642"/>
<feBlend mode="normal" in="SourceGraphic" in2="effect1_dropShadow_10272_1642" result="shape"/>
</filter>
</defs>
</svg>
